X: 13837
T: Four Six, The
R: jig
M: 6/8
K: Amajor
|:A2f ecA|BAF AFE|FAF EFA|cBA BcB|
A2f ecA|BAF AFE|FAF EFc|BAG A3:|
|:Ace ece|aec ecB|Ace ece|fec B3|
Ace ece|aec ecB|cec BAF|EFB A3:|

